app/dist/common/images/power-and-digital-infrastructure-acquisition-ii.svg

<svg height="18" viewBox="0 0 18 18" width="18" xmlns="http://www.w3.org/2000/svg"><path d="m0 0h18v18h-18z" fill="#f0f3fa"/><path d="m4 12.82c.22 0 .38-.04.48-.12.1-.07.24-.2.41-.4l3.11-3.56-2.72-3.04c-.17-.2-.32-.33-.45-.4a.86.86 0 0 0 -.45-.12v-.18h2.84v.18c-.18 0-.22.06-.22.17 0 .1.07.2.22.35l1.78 1.9 1.73-1.9c.18-.18.27-.3.27-.35 0-.11-.08-.17-.3-.17v-.18h2.88v.18c-.18 0-.32.03-.4.1-.09.05-.23.2-.44.42l-2.74 3.04 3.14 3.56c.2.21.34.35.44.42.1.06.24.1.42.1v.18h-3v-.18c.15 0 .36-.01.42-.03.05-.01.08-.04.08-.1 0-.07-.07-.17-.2-.3l-2.3-2.55-2.3 2.56c-.13.11-.2.22-.2.32 0 .07.3.1.5.1v.18h-3z" fill="#1a3661"/></svg>

<!-- by TradingView --><svg width="18" height="18" viewBox="0 0 18 18" xmlns="http://www.w3.org/2000/svg"><path fill="#F0F3FA" d="M0 0h18v18H0z"/><path d="M4 12.82c.22 0 .38-.04.48-.12.1-.07.24-.2.41-.4L8 8.74 5.28 5.7c-.17-.2-.32-.33-.45-.4a.86.86 0 0 0-.45-.12V5h2.84v.18c-.18 0-.22.06-.22.17 0 .1.07.2.22.35L9 7.6l1.73-1.9c.18-.18.27-.3.27-.35 0-.11-.08-.17-.3-.17V5h2.88v.18c-.18 0-.32.03-.4.1-.09.05-.23.2-.44.42L10 8.74l3.14 3.56c.2.21.34.35.44.42.1.06.24.1.42.1V13h-3v-.18c.15 0 .36-.01.42-.03.05-.01.08-.04.08-.1 0-.07-.07-.17-.2-.3L9 9.84 6.7 12.4c-.13.11-.2.22-.2.32 0 .07.3.1.5.1V13H4v-.18Z" fill="#1A3661"/></svg>
